X:1
T:Speed the Gospel On
T:Alonzo Judson Abbey
T:Speed the Gospel On
T:Public Domain
T:Public Domain
C:Alonzo Judson Abbey
Z:Public Domain
%%score ( 1 2 ) ( 3 4 )
L:1/8
M:4/4
K:Bb
V:1 treble 
V:2 treble 
V:3 bass 
V:4 bass 
V:1
 [B,D][CE] | [DF]2 [Fd]2 [Fd]2 [Ec]2 | [DB]6 [CA][DB] | [Ec]2 [CE]2 [CE]2 [EG]2 | [DF]6 [B,D][CE] | %5
w: 1.~See the|hea- then o’er the|sea, To their|i- dols bend- ing|low; Thi- ther|
w: 2.~They have|ne- ver, ne- ver|heard Of that|bet- ter home a-|bove; Let them|
w: 3.~As we|hear it, o’er and|o’er, How our|hearts with glad- ness|swell! Speed it|
w: 4.~Give a|lit- tle, ev- ery|one; Free- ly|give where much is|thine; ’Mid the|
 [DF]2 [Fd]2 [Fd]2 [Ec]2 | [DB]6 [CA][DB] | [Ec]2 [EA]2 [EG]2 [EA]2 | [DB]6 ||"^Refrain" [CA][DB] | %10
w: with its power di-|vine, Let the|bless- èd Gos- pel|go!||
w: hear the sto- ry|told, Of the|Sav- ior’s dy- ing|love!|Speed it|
w: to the far- thest|shore Where the|wretch- ed hea- then|dwell!||
w: gloom of sor- row’s|night, Let the|bless- èd Gos- pel|shine!||
 [Ec]6 [DB][Ec] | [Fd]6 [Fd][^Fc] | [GB]2 [DA]2 [DB]2 [Gc]2 | [^Fd]6 dd | (z2 ^FF G2) [Gd]2 | %15
w: |||||
w: on, speed it|on; Let sal-|va- tion’s morn- ing|dawn! Speed the|* * * bless-|
w: |||||
w: |||||
 [Gc]2 [Gd]2 [Ge]2 [Fd][Ec] | [DB]2 [DF]2 [Fd]2 [Ec]2 | [DB]6 |] %18
w: |||
w: * Gos- pel on, Till|the dark- ness is|all|
w: |||
w: |||
V:2
 x2 | x8 | x8 | x8 | x8 | x8 | x8 | x8 | x6 || x2 | x8 | x8 | x8 | x8 | d6 x2 | x8 | x8 | x6 |] %18
w: ||||||||||||||||||
w: ||||||||||||||èd||||
V:3
 [B,,B,][B,,B,] | [B,,B,]2 [B,,B,]2 [F,B,]2 [F,A,]2 | [B,,B,]6 [F,C][F,B,] | %3
w: ~ ~|~ ~ ~ ~|~ ~ ~|
 [F,A,]2 [F,A,]2 [F,A,]2 [F,A,]2 | [B,,B,]6 [B,,B,][B,,B,] | [B,,B,]2 [B,,B,]2 [F,B,]2 [F,A,]2 | %6
w: ~ ~ ~ ~|~ ~ ~|~ ~ ~ ~|
 [B,,B,]6 [F,C][F,B,] | [F,A,]2 [F,C]2 [F,C]2 [F,C]2 | [B,,B,]6 || z2 | %10
w: ~ ~ ~|~ ~ ~ ~|~||
 z2 [F,A,][F,A,] [F,A,]2 z2 | z2 [B,,B,][B,,B,] [B,,B,]2 [B,D][A,D] | %12
w: Speed it on,|speed it on! ~ ~|
 [G,D]2 [^F,C]2 [G,B,]2 [E,G,]2 | [D,A,]6 z2 | z2 [D,A,][D,A,] [G,B,]2 [F,=B,]2 | %15
w: ~ ~ ~ ~|~|Speed the bless- èd|
 [E,C]2 [D,=B,]2 [C,C]2 [D,B,][E,G,] | F,2 [F,B,]2 [F,B,]2 [F,A,]2 | [B,,B,]6 |] %18
w: Gos- pel on, * *|||
V:4
 x2 | x8 | x8 | x8 | x8 | x8 | x8 | x8 | x6 || x2 | x8 | x8 | x8 | x8 | x8 | x8 | F,2 x6 | x6 |] %18

